DSAA
10 8
100 109
200 207
-0.687586149188833 0.995407957751765
 0.000000 0.327195 0.618370 0.841471 0.971938 0.995408 0.909297 0.723086 0.457273 0.141120
 0.000000 0.309185 0.584333 0.795154 0.918439 0.940618 0.859247 0.683285 0.432103 0.133352
 0.000000 0.257138 0.485969 0.661301 0.763834 0.782278 0.714605 0.568264 0.359365 0.110904
 0.000000 0.176784 0.334107 0.454649 0.525140 0.537821 0.491295 0.390685 0.247065 0.076247
 0.000000 0.076968 0.145464 0.197946 0.228636 0.234157 0.213901 0.170097 0.107568 0.033197
 0.000000 -0.031320 -0.059193 -0.080549 -0.093037 -0.095284 -0.087041 -0.069216 -0.043772 -0.013509
 0.000000 -0.136161 -0.257333 -0.350175 -0.404469 -0.414236 -0.378401 -0.300910 -0.190293 -0.058727
 0.000000 -0.226012 -0.427144 -0.581253 -0.671374 -0.687586 -0.628105 -0.499477 -0.315865 -0.097480
